X: 37805
T: Sonny Brogan's
R: jig
M: 6/8
K: Adorian
|:cAB ~c3|~d3 ede|ABA cde|dcA AGA|
EAB cBc|dcd ede|~a3 ged|cAG A3:|
|:eaa aba|gef gfg|eaa aba|ged cAA|
eaa eaa|gef gfg|~a3 ged|cAG A3:|

